X: 30
M:2/4
L:1/16
K:A
vED|CEAc efec|defd .B2("4"ed)|cd"4"ec AcBA|GABG .E2(ED)|
|:vcd|ecae "4"c'aea|fefg bagf|fedc dcBA|GABc .B2(cd)|
ecae "4"c'aea|fefg bagf|eagf ecdB|A2c2A2:|


